X: 1
T:AIR XXXIII. I'll gar you be fain to follow me.
B:Joseph Mitchell: "The Highland Fair" (1731)
Z:Jack Campin <http://www.purr.demon.co.uk/jack/jack.html>
M:6/4
L:1/4
K:F
F|(A/B/)cc  f2a          |g2G  G2F|(A/B/)cc  ffg    | e>dc         f2
A| B>cd     cdf          |g2G  G2F|(A/B/)cc (d/e/)fc| AFF          F2||
c|(A/B/)cd (cA)F         |B>cA G2F|(A/B/)cd  cAF    |(B/A/)(B/c/)d c2
F| B>cd     c(d/c/)(B/A/)|BGG  G2F|(A/B/)cc (d/e/)fc| AFF          F2|]
